local/share/icons/dracula-icons-main/scalable/apps/accessories-media-converter.svg

<?xml version="1.0" encoding="UTF-8"?>
<svg xmlns="http://www.w3.org/2000/svg" xmlns:xlink="http://www.w3.org/1999/xlink" width="64" height="64" viewBox="0 0 64 64">
<path fill-rule="nonzero" fill="rgb(97.647059%, 97.647059%, 97.647059%)" fill-opacity="1" d="M 15.609375 8.464844 C 15.609375 12.410156 12.410156 15.609375 8.464844 15.609375 C 4.519531 15.609375 1.324219 12.410156 1.324219 8.464844 C 1.324219 4.519531 4.519531 1.324219 8.464844 1.324219 C 12.410156 1.324219 15.609375 4.519531 15.609375 8.464844 Z M 15.609375 8.464844 "/>
<path fill-rule="nonzero" fill="rgb(29.803922%, 56.078431%, 84.705882%)" fill-opacity="1" d="M 8.292969 3.292969 C 6.980469 3.335938 5.726562 3.878906 4.796875 4.808594 C 2.949219 6.660156 2.769531 9.59375 4.371094 11.65625 L 5.464844 10.566406 C 4.453125 9.113281 4.625 7.144531 5.875 5.890625 C 6.875 4.894531 8.359375 4.558594 9.6875 5.03125 L 9.6875 6.339844 L 11.644531 4.382812 C 10.691406 3.640625 9.503906 3.253906 8.292969 3.292969 Z M 8.292969 3.292969 "/>
<path fill-rule="nonzero" fill="rgb(42.745098%, 86.27451%, 90.588235%)" fill-opacity="1" d="M 12.5625 5.300781 L 11.46875 6.390625 C 12.480469 7.847656 12.308594 9.816406 11.054688 11.070312 C 10.058594 12.066406 8.574219 12.398438 7.246094 11.929688 L 7.246094 10.617188 L 5.949219 11.910156 L 5.285156 12.574219 C 7.351562 14.179688 10.285156 13.996094 12.136719 12.148438 C 13.980469 10.300781 14.164062 7.367188 12.5625 5.300781 Z M 12.5625 5.300781 "/>
<path fill-rule="nonzero" fill="rgb(46.27451%, 39.215686%, 76.862745%)" fill-opacity="1" d="M 16.667969 13.230469 C 16.667969 15.128906 15.128906 16.667969 13.230469 16.667969 C 11.328125 16.667969 9.789062 15.128906 9.789062 13.230469 C 9.789062 11.328125 11.328125 9.789062 13.230469 9.789062 C 15.128906 9.789062 16.667969 11.328125 16.667969 13.230469 Z M 16.667969 13.230469 "/>
<path fill-rule="nonzero" fill="rgb(100%, 100%, 100%)" fill-opacity="1" d="M 12.179688 13.511719 C 12.179688 14.121094 12.191406 14.335938 11.800781 14.335938 C 11.410156 14.335938 11.097656 14.460938 11.097656 14.816406 C 11.097656 15.171875 11.464844 15.34375 11.695312 15.34375 C 11.925781 15.34375 12.378906 15.183594 12.378906 14.703125 L 12.378906 12.519531 L 14.332031 12.066406 L 14.332031 13.738281 C 14.332031 13.738281 14.355469 13.9375 14.097656 13.9375 C 13.839844 13.9375 13.269531 13.863281 13.269531 14.410156 C 13.269531 14.953125 13.820312 14.921875 13.90625 14.921875 C 13.996094 14.921875 14.550781 14.828125 14.550781 14.179688 L 14.550781 11.113281 L 12.167969 11.570312 Z M 12.179688 13.511719 "/>
</svg>

<svg width="64" height="64" version="1.1" viewBox="0 0 16.933 16.933" xmlns="http://www.w3.org/2000/svg">
 <circle cx="8.4665" cy="8.4665" r="7.1436" fill="#f9f9f9" stroke-width=".77999" style="paint-order:stroke markers fill"/>
 <path d="m8.2949 3.2938a5.1902 5.1902 0 0 0-3.4986 1.5151 5.1902 5.1902 0 0 0-0.42348 6.8484l1.0904-1.0904a3.6636 3.6636 0 0 1 0.4131-4.6779 3.6636 3.6636 0 0 1 3.8113-0.8585v1.3108l1.9582-1.9582a5.1902 5.1902 0 0 0-3.3509-1.0893z" fill="#4c8fd8" stroke-width=".86669" style="paint-order:stroke markers fill"/>
 <path d="m12.561 5.3015-1.0904 1.0904a3.6636 3.6636 0 0 1-0.41425 4.6779 3.6636 3.6636 0 0 1-3.8113 0.8585v-1.312l-1.2947 1.2958-0.66349 0.66234a5.1902 5.1902 0 0 0 6.8496-0.42464 5.1902 5.1902 0 0 0 0.42464-6.8484z" fill="#6ddce7" stroke-width=".86669" style="paint-order:stroke markers fill"/>
 <circle cx="13.229" cy="13.229" r="3.4395" fill="#7664c4" style="paint-order:stroke fill markers"/>
 <path d="m12.179 13.513c0 0.60887 0.01149 0.8214-0.37911 0.8214-0.39059 0-0.70078 0.12637-0.70078 0.4825s0.36762 0.52845 0.59738 0.52845 0.68355-0.16083 0.68355-0.64333v-2.1827l1.953-0.45377v1.6716s0.02298 0.20105-0.2355 0.20105-0.82714-0.07468-0.82714 0.47102c0 0.54568 0.55143 0.51122 0.63759 0.51122s0.64334-0.09191 0.64334-0.74099v-3.0673l-2.3837 0.45952z" fill="#ffffff" stroke-width=".13349"/>
</svg>
